luts/red_to_gray.cube
TITLE "Zero_Tolerance_Blood_Censor_v3"
LUT_3D_SIZE 33
0.000000 0.000000 0.000000
0.031250 0.000000 0.000000
0.062500 0.000000 0.000000
0.093750 0.000000 0.000000
0.083184 0.011069 0.011069
0.074281 0.021697 0.021697
0.053499 0.035470 0.035470
0.045784 0.045784 0.045784
0.052325 0.052325 0.052325
0.058866 0.058866 0.058866
0.065406 0.065406 0.065406
0.071947 0.071947 0.071947
0.078488 0.078488 0.078488
0.085028 0.085028 0.085028
0.091569 0.091569 0.091569
0.098109 0.098109 0.098109
0.104650 0.104650 0.104650
0.111191 0.111191 0.111191
0.117731 0.117731 0.117731
0.124272 0.124272 0.124272
0.130812 0.130812 0.130812
0.137353 0.137353 0.137353
0.143894 0.143894 0.143894
0.150434 0.150434 0.150434
0.156975 0.156975 0.156975
0.163516 0.163516 0.163516
0.170056 0.170056 0.170056
0.176597 0.176597 0.176597
0.183137 0.183137 0.183137
0.189678 0.189678 0.189678
0.196219 0.196219 0.196219
0.202759 0.202759 0.202759
0.209300 0.209300 0.209300
0.000000 0.031250 0.000000
0.031250 0.031250 0.000000
0.062500 0.031250 0.000000
0.093750 0.031250 0.000000
0.109289 0.032666 0.007126
0.109413 0.037297 0.019269
0.097657 0.045073 0.034556
0.074022 0.055993 0.052988
0.065166 0.065166 0.065166
0.071706 0.071706 0.071706
0.078247 0.078247 0.078247
0.084787 0.084787 0.084787
0.091328 0.091328 0.091328
0.097869 0.097869 0.097869
0.104409 0.104409 0.104409
0.110950 0.110950 0.110950
0.117491 0.117491 0.117491
0.124031 0.124031 0.124031
0.130572 0.130572 0.130572
0.137112 0.137112 0.137112
0.143653 0.143653 0.143653
0.150194 0.150194 0.150194
0.156734 0.156734 0.156734
0.163275 0.163275 0.163275
0.169816 0.169816 0.169816
0.176356 0.176356 0.176356
0.182897 0.182897 0.182897
0.189437 0.189437 0.189437
0.195978 0.195978 0.195978
0.202519 0.202519 0.202519
0.209059 0.209059 0.209059
0.215600 0.215600 0.215600
0.222141 0.222141 0.222141
0.000000 0.062500 0.000000
0.031250 0.062500 0.000000
0.062500 0.062500 0.000000
0.093750 0.062500 0.000000
0.125000 0.062500 0.000000
0.147310 0.062124 0.005333
0.135641 0.063526 0.027468
0.121032 0.068448 0.047415
0.094544 0.076515 0.070506
0.084547 0.084547 0.084547
0.091087 0.091087 0.091087
0.097628 0.097628 0.097628
0.104169 0.104169 0.104169
0.110709 0.110709 0.110709
0.117250 0.117250 0.117250
0.123791 0.123791 0.123791
0.130331 0.130331 0.130331
0.136872 0.136872 0.136872
0.143412 0.143412 0.143412
0.149953 0.149953 0.149953
0.156494 0.156494 0.156494
0.163034 0.163034 0.163034
0.169575 0.169575 0.169575
0.176116 0.176116 0.176116
0.182656 0.182656 0.182656
0.189197 0.189197 0.189197
0.195738 0.195738 0.195738
0.202278 0.202278 0.202278
0.208819 0.208819 0.208819
0.215359 0.215359 0.215359
0.221900 0.221900 0.221900
0.228441 0.228441 0.228441
0.234981 0.234981 0.234981
0.000000 0.093750 0.000000
0.031250 0.093750 0.000000
0.062500 0.093750 0.000000
0.093750 0.093750 0.000000
0.125000 0.093750 0.000000
0.156250 0.093750 0.000000
0.187500 0.093750 0.000000
0.208042 0.092998 0.006715
0.167872 0.092252 0.046880
0.115067 0.097038 0.088023
0.103928 0.103928 0.103928
0.110469 0.110469 0.110469
0.117009 0.117009 0.117009
0.123550 0.123550 0.123550
0.130091 0.130091 0.130091
0.136631 0.136631 0.136631
0.143172 0.143172 0.143172
0.149712 0.149712 0.149712
0.156253 0.156253 0.156253
0.162794 0.162794 0.162794
0.169334 0.169334 0.169334
0.175875 0.175875 0.175875
0.182416 0.182416 0.182416
0.188956 0.188956 0.188956
0.195497 0.195497 0.195497
0.202037 0.202037 0.202037
0.208578 0.208578 0.208578
0.215119 0.215119 0.215119
0.221659 0.221659 0.221659
0.228200 0.228200 0.228200
0.234741 0.234741 0.234741
0.241281 0.241281 0.241281
0.247822 0.247822 0.247822
0.000000 0.125000 0.000000
0.031250 0.125000 0.000000
0.062500 0.125000 0.000000
0.093750 0.125000 0.000000
0.125000 0.125000 0.000000
0.156250 0.125000 0.000000
0.187500 0.125000 0.000000
0.218750 0.125000 0.000000
0.250000 0.125000 0.000000
0.273649 0.124343 0.004899
0.224045 0.121280 0.052770
0.150231 0.123516 0.108250
0.129850 0.129850 0.129850
0.136391 0.136391 0.136391
0.142931 0.142931 0.142931
0.149472 0.149472 0.149472
0.156012 0.156012 0.156012
0.162553 0.162553 0.162553
0.169094 0.169094 0.169094
0.175634 0.175634 0.175634
0.182175 0.182175 0.182175
0.188716 0.188716 0.188716
0.195256 0.195256 0.195256
0.201797 0.201797 0.201797
0.208338 0.208338 0.208338
0.214878 0.214878 0.214878
0.221419 0.221419 0.221419
0.227959 0.227959 0.227959
0.234500 0.234500 0.234500
0.241041 0.241041 0.241041
0.247581 0.247581 0.247581
0.254122 0.254122 0.254122
0.260663 0.260663 0.260663
0.000000 0.156250 0.000000
0.031250 0.156250 0.000000
0.062500 0.156250 0.000000
0.093750 0.156250 0.000000
0.125000 0.156250 0.000000
0.156250 0.156250 0.000000
0.187500 0.156250 0.000000
0.218750 0.156250 0.000000
0.250000 0.156250 0.000000
0.281250 0.156250 0.000000
0.312500 0.156250 0.000000
0.339950 0.155882 0.002492
0.303296 0.152065 0.044043
0.232171 0.151496 0.101075
0.177363 0.155809 0.143834
0.162312 0.162312 0.162312
0.168853 0.168853 0.168853
0.175394 0.175394 0.175394
0.181934 0.181934 0.181934
0.188475 0.188475 0.188475
0.195016 0.195016 0.195016
0.201556 0.201556 0.201556
0.208097 0.208097 0.208097
0.214637 0.214637 0.214637
0.221178 0.221178 0.221178
0.227719 0.227719 0.227719
0.234259 0.234259 0.234259
0.240800 0.240800 0.240800
0.247341 0.247341 0.247341
0.253881 0.253881 0.253881
0.260422 0.260422 0.260422
0.266962 0.266962 0.266962
0.273503 0.273503 0.273503
0.000000 0.187500 0.000000
0.031250 0.187500 0.000000
0.062500 0.187500 0.000000
0.093750 0.187500 0.000000
0.125000 0.187500 0.000000
0.156250 0.187500 0.000000
0.187500 0.187500 0.000000
0.218750 0.187500 0.000000
0.250000 0.187500 0.000000
0.281250 0.187500 0.000000
0.312500 0.187500 0.000000
0.343750 0.187500 0.000000
0.375000 0.187500 0.000000
0.405360 0.187407 0.000591
0.386881 0.183944 0.031742
0.321952 0.181327 0.087577
0.252426 0.182984 0.141319
0.206215 0.188196 0.178367
0.194775 0.194775 0.194775
0.201316 0.201316 0.201316
0.207856 0.207856 0.207856
0.214397 0.214397 0.214397
0.220937 0.220937 0.220937
0.227478 0.227478 0.227478
0.234019 0.234019 0.234019
0.240559 0.240559 0.240559
0.247100 0.247100 0.247100
0.253641 0.253641 0.253641
0.260181 0.260181 0.260181
0.266722 0.266722 0.266722
0.273262 0.273262 0.273262
0.279803 0.279803 0.279803
0.286344 0.286344 0.286344
0.000000 0.218750 0.000000
0.031250 0.218750 0.000000
0.062500 0.218750 0.000000
0.093750 0.218750 0.000000
0.125000 0.218750 0.000000
0.156250 0.218750 0.000000
0.187500 0.218750 0.000000
0.218750 0.218750 0.000000
0.250000 0.218750 0.000000
0.281250 0.218750 0.000000
0.312500 0.218750 0.000000
0.343750 0.218750 0.000000
0.375000 0.218750 0.000000
0.406250 0.218750 0.000000
0.437500 0.218750 0.000000
0.468750 0.218750 0.000000
0.465331 0.216002 0.022079
0.411341 0.212331 0.073024
0.339132 0.211742 0.130675
0.275407 0.214897 0.179600
0.236085 0.220623 0.212297
0.227237 0.227237 0.227237
0.233778 0.233778 0.233778
0.240319 0.240319 0.240319
0.246859 0.246859 0.246859
0.253400 0.253400 0.253400
0.259941 0.259941 0.259941
0.266481 0.266481 0.266481
0.273022 0.273022 0.273022
0.279562 0.279562 0.279562
0.286103 0.286103 0.286103
0.292644 0.292644 0.292644
0.299184 0.299184 0.299184
0.000000 0.250000 0.000000
0.031250 0.250000 0.000000
0.062500 0.250000 0.000000
0.093750 0.250000 0.000000
0.125000 0.250000 0.000000
0.156250 0.250000 0.000000
0.187500 0.250000 0.000000
0.218750 0.250000 0.000000
0.250000 0.250000 0.000000
0.281250 0.250000 0.000000
0.312500 0.250000 0.000000
0.343750 0.250000 0.000000
0.375000 0.250000 0.000000
0.406250 0.250000 0.000000
0.437500 0.250000 0.000000
0.468750 0.250000 0.000000
0.500000 0.250000 0.000000
0.531250 0.250000 0.000000
0.539587 0.248021 0.014768
0.497651 0.243973 0.059479
0.429269 0.241769 0.116769
0.357879 0.242887 0.172122
0.300461 0.247032 0.216500
0.266601 0.253068 0.245851
0.259700 0.259700 0.259700
0.266241 0.266241 0.266241
0.272781 0.272781 0.272781
0.279322 0.279322 0.279322
0.285862 0.285862 0.285862
0.292403 0.292403 0.292403
0.298944 0.298944 0.298944
0.305484 0.305484 0.305484
0.312025 0.312025 0.312025
0.000000 0.281250 0.000000
0.031250 0.281250 0.000000
0.062500 0.281250 0.000000
0.093750 0.281250 0.000000
0.125000 0.281250 0.000000
0.156250 0.281250 0.000000
0.187500 0.281250 0.000000
0.218750 0.281250 0.000000
0.250000 0.281250 0.000000
0.281250 0.281250 0.000000
0.312500 0.281250 0.000000
0.343750 0.281250 0.000000
0.375000 0.281250 0.000000
0.406250 0.281250 0.000000
0.437500 0.281250 0.000000
0.468750 0.281250 0.000000
0.500000 0.281250 0.000000
0.531250 0.281250 0.000000
0.562500 0.281250 0.000000
0.593750 0.281250 0.000000
0.610590 0.279923 0.009377
0.580321 0.275916 0.047613
0.518973 0.272671 0.102154
0.446318 0.272074 0.160060
0.378639 0.274476 0.211978
0.327034 0.279288 0.252431
0.297550 0.285523 0.279156
0.292162 0.292162 0.292162
0.298703 0.298703 0.298703
0.305244 0.305244 0.305244
0.311784 0.311784 0.311784
0.318325 0.318325 0.318325
0.324866 0.324866 0.324866
0.000000 0.312500 0.000000
0.031250 0.312500 0.000000
0.062500 0.312500 0.000000
0.093750 0.312500 0.000000
0.125000 0.312500 0.000000
0.156250 0.312500 0.000000
0.187500 0.312500 0.000000
0.218750 0.312500 0.000000
0.250000 0.312500 0.000000
0.281250 0.312500 0.000000
0.312500 0.312500 0.000000
0.343750 0.312500 0.000000
0.375000 0.312500 0.000000
0.406250 0.312500 0.000000
0.437500 0.312500 0.000000
0.468750 0.312500 0.000000
0.500000 0.312500 0.000000
0.531250 0.312500 0.000000
0.562500 0.312500 0.000000
0.593750 0.312500 0.000000
0.625000 0.312500 0.000000
0.656250 0.312500 0.000000
0.679091 0.311686 0.005515
0.659546 0.307970 0.037527
0.606592 0.304130 0.088085
0.536586 0.302211 0.145961
0.464341 0.302992 0.202149
0.401227 0.306342 0.250528
0.354726 0.311617 0.287668
0.328804 0.317983 0.312287
0.324625 0.324625 0.324625
0.331166 0.331166 0.331166
0.337706 0.337706 0.337706
0.000000 0.343750 0.000000
0.031250 0.343750 0.000000
0.062500 0.343750 0.000000
0.093750 0.343750 0.000000
0.125000 0.343750 0.000000
0.156250 0.343750 0.000000
0.187500 0.343750 0.000000
0.218750 0.343750 0.000000
0.250000 0.343750 0.000000
0.281250 0.343750 0.000000
0.312500 0.343750 0.000000
0.343750 0.343750 0.000000
0.375000 0.343750 0.000000
0.406250 0.343750 0.000000
0.437500 0.343750 0.000000
0.468750 0.343750 0.000000
0.500000 0.343750 0.000000
0.531250 0.343750 0.000000
0.562500 0.343750 0.000000
0.593750 0.343750 0.000000
0.625000 0.343750 0.000000
0.656250 0.343750 0.000000
0.687500 0.343750 0.000000
0.718750 0.343750 0.000000
0.745660 0.343313 0.002865
0.735749 0.340027 0.029102
0.691546 0.335920 0.075127
0.626458 0.333046 0.131325
0.553576 0.332445 0.189360
0.483844 0.334334 0.242967
0.425339 0.338386 0.288045
0.383257 0.343990 0.322393
0.360279 0.350445 0.345294
0.000000 0.375000 0.000000
0.031250 0.375000 0.000000
0.062500 0.375000 0.000000
0.093750 0.375000 0.000000
0.125000 0.375000 0.000000
0.156250 0.375000 0.000000
0.187500 0.375000 0.000000
0.218750 0.375000 0.000000
0.250000 0.375000 0.000000
0.281250 0.375000 0.000000
0.312500 0.375000 0.000000
0.343750 0.375000 0.000000
0.375000 0.375000 0.000000
0.406250 0.375000 0.000000
0.437500 0.375000 0.000000
0.468750 0.375000 0.000000
0.500000 0.375000 0.000000
0.531250 0.375000 0.000000
0.562500 0.375000 0.000000
0.593750 0.375000 0.000000
0.625000 0.375000 0.000000
0.656250 0.375000 0.000000
0.687500 0.375000 0.000000
0.718750 0.375000 0.000000
0.750000 0.375000 0.000000
0.781250 0.375000 0.000000
0.810720 0.374815 0.001182
0.809381 0.372031 0.022152
0.773761 0.367889 0.063484
0.714809 0.364369 0.117000
0.643903 0.362653 0.175153
0.571208 0.363206 0.231837
0.504852 0.365968 0.282637
0.000000 0.406250 0.000000
0.031250 0.406250 0.000000
0.062500 0.406250 0.000000
0.093750 0.406250 0.000000
0.125000 0.406250 0.000000
0.156250 0.406250 0.000000
0.187500 0.406250 0.000000
0.218750 0.406250 0.000000
0.250000 0.406250 0.000000
0.281250 0.406250 0.000000
0.312500 0.406250 0.000000
0.343750 0.406250 0.000000
0.375000 0.406250 0.000000
0.406250 0.406250 0.000000
0.437500 0.406250 0.000000
0.468750 0.406250 0.000000
0.500000 0.406250 0.000000
0.531250 0.406250 0.000000
0.562500 0.406250 0.000000
0.593750 0.406250 0.000000
0.625000 0.406250 0.000000
0.656250 0.406250 0.000000
0.687500 0.406250 0.000000
0.718750 0.406250 0.000000
0.750000 0.406250 0.000000
0.781250 0.406250 0.000000
0.812500 0.406250 0.000000
0.843750 0.406250 0.000000
0.874587 0.406206 0.000275
0.880850 0.403956 0.016480
0.853388 0.399938 0.053182
0.801131 0.396020 0.103440
0.733877 0.393442 0.160512
0.000000 0.437500 0.000000
0.031250 0.437500 0.000000
0.062500 0.437500 0.000000
0.093750 0.437500 0.000000
0.125000 0.437500 0.000000
0.156250 0.437500 0.000000
0.187500 0.437500 0.000000
0.218750 0.437500 0.000000
0.250000 0.437500 0.000000
0.281250 0.437500 0.000000
0.312500 0.437500 0.000000
0.343750 0.437500 0.000000
0.375000 0.437500 0.000000
0.406250 0.437500 0.000000
0.437500 0.437500 0.000000
0.468750 0.437500 0.000000
0.500000 0.437500 0.000000
0.531250 0.437500 0.000000
0.562500 0.437500 0.000000
0.593750 0.437500 0.000000
0.625000 0.437500 0.000000
0.656250 0.437500 0.000000
0.687500 0.437500 0.000000
0.718750 0.437500 0.000000
0.750000 0.437500 0.000000
0.781250 0.437500 0.000000
0.812500 0.437500 0.000000
0.843750 0.437500 0.000000
0.875000 0.437500 0.000000
0.906250 0.437500 0.000000
0.937500 0.437500 0.000000
0.950504 0.435789 0.011906
0.930662 0.432003 0.044157
0.000000 0.468750 0.000000
0.031250 0.468750 0.000000
0.062500 0.468750 0.000000
0.093750 0.468750 0.000000
0.125000 0.468750 0.000000
0.156250 0.468750 0.000000
0.187500 0.468750 0.000000
0.218750 0.468750 0.000000
0.250000 0.468750 0.000000
0.281250 0.468750 0.000000
0.312500 0.468750 0.000000
0.343750 0.468750 0.000000
0.375000 0.468750 0.000000
0.406250 0.468750 0.000000
0.437500 0.468750 0.000000
0.468750 0.468750 0.000000
0.500000 0.468750 0.000000
0.531250 0.468750 0.000000
0.562500 0.468750 0.000000
0.593750 0.468750 0.000000
0.625000 0.468750 0.000000
0.656250 0.468750 0.000000
0.687500 0.468750 0.000000
0.718750 0.468750 0.000000
0.750000 0.468750 0.000000
0.781250 0.468750 0.000000
0.812500 0.468750 0.000000
0.843750 0.468750 0.000000
0.875000 0.468750 0.000000
0.906250 0.468750 0.000000
0.937500 0.468750 0.000000
0.968750 0.468750 0.000000
1.000000 0.468750 0.000000
0.000000 0.500000 0.000000
0.031250 0.500000 0.000000
0.062500 0.500000 0.000000
0.093750 0.500000 0.000000
0.125000 0.500000 0.000000
0.156250 0.500000 0.000000
0.187500 0.500000 0.000000
0.218750 0.500000 0.000000
0.250000 0.500000 0.000000
0.281250 0.500000 0.000000
0.312500 0.500000 0.000000
0.343750 0.500000 0.000000
0.375000 0.500000 0.000000
0.406250 0.500000 0.000000
0.437500 0.500000 0.000000
0.468750 0.500000 0.000000
0.500000 0.500000 0.000000
0.531250 0.500000 0.000000
0.562500 0.500000 0.000000
0.593750 0.500000 0.000000
0.625000 0.500000 0.000000
0.656250 0.500000 0.000000
0.687500 0.500000 0.000000
0.718750 0.500000 0.000000
0.750000 0.500000 0.000000
0.781250 0.500000 0.000000
0.812500 0.500000 0.000000
0.843750 0.500000 0.000000
0.875000 0.500000 0.000000
0.906250 0.500000 0.000000
0.937500 0.500000 0.000000
0.968750 0.500000 0.000000
1.000000 0.500000 0.000000
0.000000 0.531250 0.000000
0.031250 0.531250 0.000000
0.062500 0.531250 0.000000
0.093750 0.531250 0.000000
0.125000 0.531250 0.000000
0.156250 0.531250 0.000000
0.187500 0.531250 0.000000
0.218750 0.531250 0.000000
0.250000 0.531250 0.000000
0.281250 0.531250 0.000000
0.312500 0.531250 0.000000
0.343750 0.531250 0.000000
0.375000 0.531250 0.000000
0.406250 0.531250 0.000000
0.437500 0.531250 0.000000
0.468750 0.531250 0.000000
0.500000 0.531250 0.000000
0.531250 0.531250 0.000000
0.562500 0.531250 0.000000
0.593750 0.531250 0.000000
0.625000 0.531250 0.000000
0.656250 0.531250 0.000000
0.687500 0.531250 0.000000
0.718750 0.531250 0.000000
0.750000 0.531250 0.000000
0.781250 0.531250 0.000000
0.812500 0.531250 0.000000
0.843750 0.531250 0.000000
0.875000 0.531250 0.000000
0.906250 0.531250 0.000000
0.937500 0.531250 0.000000
0.968750 0.531250 0.000000
1.000000 0.531250 0.000000
0.000000 0.562500 0.000000
0.031250 0.562500 0.000000
0.062500 0.562500 0.000000
0.093750 0.562500 0.000000
0.125000 0.562500 0.000000
0.156250 0.562500 0.000000
0.187500 0.562500 0.000000
0.218750 0.562500 0.000000
0.250000 0.562500 0.000000
0.281250 0.562500 0.000000
0.312500 0.562500 0.000000
0.343750 0.562500 0.000000
0.375000 0.562500 0.000000
0.406250 0.562500 0.000000
0.437500 0.562500 0.000000
0.468750 0.562500 0.000000
0.500000 0.562500 0.000000
0.531250 0.562500 0.000000
0.562500 0.562500 0.000000
0.593750 0.562500 0.000000
0.625000 0.562500 0.000000
0.656250 0.562500 0.000000
0.687500 0.562500 0.000000
0.718750 0.562500 0.000000
0.750000 0.562500 0.000000
0.781250 0.562500 0.000000
0.812500 0.562500 0.000000
0.843750 0.562500 0.000000
0.875000 0.562500 0.000000
0.906250 0.562500 0.000000
0.937500 0.562500 0.000000
0.968750 0.562500 0.000000
1.000000 0.562500 0.000000
0.000000 0.593750 0.000000
0.031250 0.593750 0.000000
0.062500 0.593750 0.000000
0.093750 0.593750 0.000000
0.125000 0.593750 0.000000
0.156250 0.593750 0.000000
0.187500 0.593750 0.000000
0.218750 0.593750 0.000000
0.250000 0.593750 0.000000
0.281250 0.593750 0.000000
0.312500 0.593750 0.000000
0.343750 0.593750 0.000000
0.375000 0.593750 0.000000
0.406250 0.593750 0.000000
0.437500 0.593750 0.000000
0.468750 0.593750 0.000000
0.500000 0.593750 0.000000
0.531250 0.593750 0.000000
0.562500 0.593750 0.000000
0.593750 0.593750 0.000000
0.625000 0.593750 0.000000
0.656250 0.593750 0.000000
0.687500 0.593750 0.000000
0.718750 0.593750 0.000000
0.750000 0.593750 0.000000
0.781250 0.593750 0.000000
0.812500 0.593750 0.000000
0.843750 0.593750 0.000000
0.875000 0.593750 0.000000
0.906250 0.593750 0.000000
0.937500 0.593750 0.000000
0.968750 0.593750 0.000000
1.000000 0.593750 0.000000
0.000000 0.625000 0.000000
0.031250 0.625000 0.000000
0.062500 0.625000 0.000000
0.093750 0.625000 0.000000
0.125000 0.625000 0.000000
0.156250 0.625000 0.000000
0.187500 0.625000 0.000000
0.218750 0.625000 0.000000
0.250000 0.625000 0.000000
0.281250 0.625000 0.000000
0.312500 0.625000 0.000000
0.343750 0.625000 0.000000
0.375000 0.625000 0.000000
0.406250 0.625000 0.000000
0.437500 0.625000 0.000000
0.468750 0.625000 0.000000
0.500000 0.625000 0.000000
0.531250 0.625000 0.000000
0.562500 0.625000 0.000000
0.593750 0.625000 0.000000
0.625000 0.625000 0.000000
0.656250 0.625000 0.000000
0.687500 0.625000 0.000000
0.718750 0.625000 0.000000
0.750000 0.625000 0.000000
0.781250 0.625000 0.000000
0.812500 0.625000 0.000000
0.843750 0.625000 0.000000
0.875000 0.625000 0.000000
0.906250 0.625000 0.000000
0.937500 0.625000 0.000000
0.968750 0.625000 0.000000
1.000000 0.625000 0.000000
0.000000 0.656250 0.000000
0.031250 0.656250 0.000000
0.062500 0.656250 0.000000
0.093750 0.656250 0.000000
0.125000 0.656250 0.000000
0.156250 0.656250 0.000000
0.187500 0.656250 0.000000
0.218750 0.656250 0.000000
0.250000 0.656250 0.000000
0.281250 0.656250 0.000000
0.312500 0.656250 0.000000
0.343750 0.656250 0.000000
0.375000 0.656250 0.000000
0.406250 0.656250 0.000000
0.437500 0.656250 0.000000
0.468750 0.656250 0.000000
0.500000 0.656250 0.000000
0.531250 0.656250 0.000000
0.562500 0.656250 0.000000
0.593750 0.656250 0.000000
0.625000 0.656250 0.000000
0.656250 0.656250 0.000000
0.687500 0.656250 0.000000
0.718750 0.656250 0.000000
0.750000 0.656250 0.000000
0.781250 0.656250 0.000000
0.812500 0.656250 0.000000
0.843750 0.656250 0.000000
0.875000 0.656250 0.000000
0.906250 0.656250 0.000000
0.937500 0.656250 0.000000
0.968750 0.656250 0.000000
1.000000 0.656250 0.000000
0.000000 0.687500 0.000000
0.031250 0.687500 0.000000
0.062500 0.687500 0.000000
0.093750 0.687500 0.000000
0.125000 0.687500 0.000000
0.156250 0.687500 0.000000
0.187500 0.687500 0.000000
0.218750 0.687500 0.000000
0.250000 0.687500 0.000000
0.281250 0.687500 0.000000
0.312500 0.687500 0.000000
0.343750 0.687500 0.000000
0.375000 0.687500 0.000000
0.406250 0.687500 0.000000
0.437500 0.687500 0.000000
0.468750 0.687500 0.000000
0.500000 0.687500 0.000000
0.531250 0.687500 0.000000
0.562500 0.687500 0.000000
0.593750 0.687500 0.000000
0.625000 0.687500 0.000000
0.656250 0.687500 0.000000
0.687500 0.687500 0.000000
0.718750 0.687500 0.000000
0.750000 0.687500 0.000000
0.781250 0.687500 0.000000
0.812500 0.687500 0.000000
0.843750 0.687500 0.000000
0.875000 0.687500 0.000000
0.906250 0.687500 0.000000
0.937500 0.687500 0.000000
0.968750 0.687500 0.000000
1.000000 0.687500 0.000000
0.000000 0.718750 0.000000
0.031250 0.718750 0.000000
0.062500 0.718750 0.000000
0.093750 0.718750 0.000000
0.125000 0.718750 0.000000
0.156250 0.718750 0.000000
0.187500 0.718750 0.000000
0.218750 0.718750 0.000000
0.250000 0.718750 0.000000
0.281250 0.718750 0.000000
0.312500 0.718750 0.000000
0.343750 0.718750 0.000000
0.375000 0.718750 0.000000
0.406250 0.718750 0.000000
0.437500 0.718750 0.000000
0.468750 0.718750 0.000000
0.500000 0.718750 0.000000
0.531250 0.718750 0.000000
0.562500 0.718750 0.000000
0.593750 0.718750 0.000000
0.625000 0.718750 0.000000
0.656250 0.718750 0.000000
0.687500 0.718750 0.000000
0.718750 0.718750 0.000000
0.750000 0.718750 0.000000
0.781250 0.718750 0.000000
0.812500 0.718750 0.000000
0.843750 0.718750 0.000000
0.875000 0.718750 0.000000
0.906250 0.718750 0.000000
0.937500 0.718750 0.000000
0.968750 0.718750 0.000000
1.000000 0.718750 0.000000
0.000000 0.750000 0.000000
0.031250 0.750000 0.000000
0.062500 0.750000 0.000000
0.093750 0.750000 0.000000
0.125000 0.750000 0.000000
0.156250 0.750000 0.000000
0.187500 0.750000 0.000000
0.218750 0.750000 0.000000
0.250000 0.750000 0.000000
0.281250 0.750000 0.000000
0.312500 0.750000 0.000000
0.343750 0.750000 0.000000
0.375000 0.750000 0.000000
0.406250 0.750000 0.000000
0.437500 0.750000 0.000000
0.468750 0.750000 0.000000
0.500000 0.750000 0.000000
0.531250 0.750000 0.000000
0.562500 0.750000 0.000000
0.593750 0.750000 0.000000
0.625000 0.750000 0.000000
0.656250 0.750000 0.000000
0.687500 0.750000 0.000000
0.718750 0.750000 0.000000
0.750000 0.750000 0.000000
0.781250 0.750000 0.000000
0.812500 0.750000 0.000000
0.843750 0.750000 0.000000
0.875000 0.750000 0.000000
0.906250 0.750000 0.000000
0.937500 0.750000 0.000000
0.968750 0.750000 0.000000
1.000000 0.750000 0.000000
0.000000 0.781250 0.000000
0.031250 0.781250 0.000000
0.062500 0.781250 0.000000
0.093750 0.781250 0.000000
0.125000 0.781250 0.000000
0.156250 0.781250 0.000000
0.187500 0.781250 0.000000
0.218750 0.781250 0.000000
0.250000 0.781250 0.000000
0.281250 0.781250 0.000000
0.312500 0.781250 0.000000
0.343750 0.781250 0.000000
0.375000 0.781250 0.000000
0.406250 0.781250 0.000000
0.437500 0.781250 0.000000
0.468750 0.781250 0.000000
0.500000 0.781250 0.000000
0.531250 0.781250 0.000000
0.562500 0.781250 0.000000
0.593750 0.781250 0.000000
0.625000 0.781250 0.000000
0.656250 0.781250 0.000000
0.687500 0.781250 0.000000
0.718750 0.781250 0.000000
0.750000 0.781250 0.000000
0.781250 0.781250 0.000000
0.812500 0.781250 0.000000
0.843750 0.781250 0.000000
0.875000 0.781250 0.000000
0.906250 0.781250 0.000000
0.937500 0.781250 0.000000
0.968750 0.781250 0.000000
1.000000 0.781250 0.000000
0.000000 0.812500 0.000000
0.031250 0.812500 0.000000
0.062500 0.812500 0.000000
0.093750 0.812500 0.000000
0.125000 0.812500 0.000000
0.156250 0.812500 0.000000
0.187500 0.812500 0.000000
0.218750 0.812500 0.000000
0.250000 0.812500 0.000000
0.281250 0.812500 0.000000
0.312500 0.812500 0.000000
0.343750 0.812500 0.000000
0.375000 0.812500 0.000000
0.406250 0.812500 0.000000
0.437500 0.812500 0.000000
0.468750 0.812500 0.000000
0.500000 0.812500 0.000000
0.531250 0.812500 0.000000
0.562500 0.812500 0.000000
0.593750 0.812500 0.000000
0.625000 0.812500 0.000000
0.656250 0.812500 0.000000
0.687500 0.812500 0.000000
0.718750 0.812500 0.000000
0.750000 0.812500 0.000000
0.781250 0.812500 0.000000
0.812500 0.812500 0.000000
0.843750 0.812500 0.000000
