luts/red_to_gray.cube
TITLE "Zero_Tolerance_Blood_Censor_v3"
LUT_3D_SIZE 5
0.000000 0.000000 0.000000
0.052325 0.052325 0.052325
0.104650 0.104650 0.104650
0.156975 0.156975 0.156975
0.209300 0.209300 0.209300
0.000000 0.250000 0.000000
0.250000 0.250000 0.000000
0.500000 0.250000 0.000000
0.259700 0.259700 0.259700
0.312025 0.312025 0.312025
0.000000 0.500000 0.000000
0.250000 0.500000 0.000000
0.500000 0.500000 0.000000
0.750000 0.500000 0.000000
1.000000 0.500000 0.000000
0.000000 0.750000 0.000000
0.250000 0.750000 0.000000
0.500000 0.750000 0.000000
0.750000 0.750000 0.000000
1.000000 0.750000 0.000000
0.000000 1.000000 0.000000
0.250000 1.000000 0.000000
0.500000 1.000000 0.000000
0.750000 1.000000 0.000000
1.000000 1.000000 0.000000
0.000000 0.000000 0.250000
0.250000 0.000000 0.250000
0.500000 0.000000 0.250000
0.176925 0.176925 0.176925
0.229250 0.229250 0.229250
0.000000 0.250000 0.250000
0.250000 0.250000 0.250000
0.227325 0.227325 0.227325
0.279650 0.279650 0.279650
0.331975 0.331975 0.331975
0.000000 0.500000 0.250000
0.250000 0.500000 0.250000
0.500000 0.500000 0.250000
0.750000 0.500000 0.250000
0.434700 0.434700 0.434700
0.000000 0.750000 0.250000
0.250000 0.750000 0.250000
0.500000 0.750000 0.250000
0.750000 0.750000 0.250000
1.000000 0.750000 0.250000
0.000000 1.000000 0.250000
0.250000 1.000000 0.250000
0.500000 1.000000 0.250000
0.750000 1.000000 0.250000
1.000000 1.000000 0.250000
0.000000 0.000000 0.500000
0.250000 0.000000 0.500000
0.500000 0.000000 0.500000
0.750000 0.000000 0.500000
1.000000 0.000000 0.500000
0.000000 0.250000 0.500000
0.250000 0.250000 0.500000
0.500000 0.250000 0.500000
0.750000 0.250000 0.500000
0.351925 0.351925 0.351925
0.000000 0.500000 0.500000
0.250000 0.500000 0.500000
0.500000 0.500000 0.500000
0.531094 0.438501 0.438501
0.454650 0.454650 0.454650
0.000000 0.750000 0.500000
0.250000 0.750000 0.500000
0.500000 0.750000 0.500000
0.750000 0.750000 0.500000
1.000000 0.750000 0.500000
0.000000 1.000000 0.500000
0.250000 1.000000 0.500000
0.500000 1.000000 0.500000
0.750000 1.000000 0.500000
1.000000 1.000000 0.500000
0.000000 0.000000 0.750000
0.250000 0.000000 0.750000
0.500000 0.000000 0.750000
0.750000 0.000000 0.750000
1.000000 0.000000 0.750000
0.000000 0.250000 0.750000
0.250000 0.250000 0.750000
0.500000 0.250000 0.750000
0.750000 0.250000 0.750000
1.000000 0.250000 0.750000
0.000000 0.500000 0.750000
0.250000 0.500000 0.750000
0.500000 0.500000 0.750000
0.750000 0.500000 0.750000
1.000000 0.500000 0.750000
0.000000 0.750000 0.750000
0.250000 0.750000 0.750000
0.500000 0.750000 0.750000
0.750000 0.750000 0.750000
0.929554 0.721221 0.721221
0.000000 1.000000 0.750000
0.250000 1.000000 0.750000
0.500000 1.000000 0.750000
0.750000 1.000000 0.750000
1.000000 1.000000 0.750000
0.000000 0.000000 1.000000
0.250000 0.000000 1.000000
0.500000 0.000000 1.000000
0.750000 0.000000 1.000000
1.000000 0.000000 1.000000
0.000000 0.250000 1.000000
0.250000 0.250000 1.000000
0.500000 0.250000 1.000000
0.750000 0.250000 1.000000
1.000000 0.250000 1.000000
0.000000 0.500000 1.000000
0.250000 0.500000 1.000000
0.500000 0.500000 1.000000
0.750000 0.500000 1.000000
1.000000 0.500000 1.000000
0.000000 0.750000 1.000000
0.250000 0.750000 1.000000
0.500000 0.750000 1.000000
0.750000 0.750000 1.000000
1.000000 0.750000 1.000000
0.000000 1.000000 1.000000
0.250000 1.000000 1.000000
0.500000 1.000000 1.000000
0.750000 1.000000 1.000000
1.000000 1.000000 1.000000
